X: 38226
T: Squaw Rapid, The
R: reel
M: 4/4
K: Dmajor
CB,|A,DDF E2 DF|Adcd fdAF|GBdg f2 df|edcB AFED|
A,DDF E2 DF|Adcd fdAF|GBdg f2 dB|Adce d2:|
de|fddd Addd|fefb afdf|g2 ga ge=cd|egga g2 eg|
fddd Addd|fefb afdA|c2 cB cAGB|AFEF D2:|

